svg/u1f646_1f3fb_200d_2640.svg

<svg viewBox="0 0 128 128" xmlns="http://www.w3.org/2000/svg">
  <g id="hairGroup_1_">
    <path id="hair_10_" d="M64.57,4.12c-41.01,0-40.68,37.92-40.68,38.52c0,24.56,1.88,59.25,11.71,72.9 c3.9,5.41,11.43,5.71,11.43,5.71L64,121.23l16.97,0.03c0,0,7.54-0.3,11.43-5.71c9.83-13.65,11.71-48.34,11.71-72.9 C104.1,42.04,105.58,4.12,64.57,4.12z" fill="#312D2D"/>
    <radialGradient id="hairHighlights_2_" cx="64.0002" cy="68.3091" gradientTransform="matrix(1 0 0 -1.1901 0 140.9834)" gradientUnits="userSpaceOnUse" r="47.5315">
      <stop offset="0.7936" stop-color="#454140" stop-opacity="0"/>
      <stop offset="1" stop-color="#454140"/>
    </radialGradient>
    <path id="hairHighlights_1_" d="M64.57,4.12c-41.01,0-40.68,37.92-40.68,38.52 c0,24.56,1.88,59.25,11.71,72.9c3.9,5.41,11.43,5.71,11.43,5.71L64,121.23l16.97,0.03c0,0,7.54-0.3,11.43-5.71 c9.83-13.65,11.71-48.34,11.71-72.9C104.1,42.04,105.58,4.12,64.57,4.12z" fill="url(#hairHighlights_2_)"/>
  </g>
  <linearGradient id="shirt_3_" gradientTransform="matrix(1 0 0 -1 0 128)" gradientUnits="userSpaceOnUse" x1="64" x2="64" y1="100.5439" y2="4.5673">
    <stop offset="0" stop-color="#651FFF"/>
    <stop offset="0.7047" stop-color="#5914F2"/>
    <stop offset="1" stop-color="#530EEB"/>
  </linearGradient>
  <path id="shirt_2_" d="M108.03,124c0,0-11.57-29.06-11.83-28.44c-1.81,4.33-3.83,7.43-11.75,4.83 c-6.39-2.1-11.83-2.5-20.15-2.5c-0.2,0-0.4,0-0.6,0c-8.32,0-13.76,0.4-20.15,2.5c-7.92,2.6-9.94-0.5-11.75-4.83 C31.54,94.95,19.97,124,19.97,124H108.03z" fill="url(#shirt_3_)"/>
  <g id="neck">
    <path d="M54.92,90.08v9.98c0,4.51,3.7,8.17,8.26,8.17h1.65c4.56,0,8.26-3.66,8.26-8.17v-9.98L54.92,90.08z" fill="#EDC391"/>
  </g>
  <path id="head" d="M64,16.04L64,16.04L64,16.04c-17.2,0-33.13,12.79-33.13,39.91 c0,21.78,13.49,34.67,25.23,38.83c2.8,0.99,5.5,1.49,7.9,1.49c2.38,0,5.07-0.49,7.85-1.47c11.76-4.14,25.28-17.03,25.28-38.84 C97.13,28.83,81.2,16.04,64,16.04z" fill="#F9DDBD"/>
  <path id="nose" d="M67.86,68.06c-0.11-0.04-0.21-0.07-0.32-0.08h-7.08c-0.11,0.01-0.22,0.04-0.32,0.08 c-0.64,0.26-0.99,0.92-0.69,1.63c0.3,0.71,1.71,2.69,4.55,2.69s4.25-1.99,4.55-2.69C68.85,68.98,68.5,68.32,67.86,68.06z" fill="#DBA689"/>
  <path id="mouth" d="M72.42,76.14c-3.18,1.89-13.63,1.89-16.81,0c-1.83-1.09-3.7,0.58-2.94,2.24 c0.75,1.63,6.44,5.42,11.37,5.42s10.55-3.79,11.3-5.42C76.09,76.72,74.25,75.05,72.42,76.14z" fill="#444444"/>
  <g id="eyes">
    <ellipse cx="47.56" cy="58.81" fill="#312D2D" rx="4.93" ry="5.1"/>
    <ellipse cx="80.44" cy="58.81" fill="#312D2D" rx="4.93" ry="5.1"/>
  </g>
  <g id="eyebrows">
    <path d="M54.99,49.82c-0.93-1.23-3.07-3.01-7.23-3.01s-6.31,1.79-7.23,3.01c-0.41,0.54-0.31,1.17-0.02,1.55 c0.26,0.35,1.04,0.68,1.9,0.39s2.54-1.16,5.35-1.18c2.81,0.02,4.49,0.89,5.35,1.18c0.86,0.29,1.64-0.03,1.9-0.39 C55.29,50.99,55.39,50.36,54.99,49.82z" fill="#454140"/>
    <path d="M87.48,49.82c-0.93-1.23-3.07-3.01-7.23-3.01s-6.31,1.79-7.23,3.01c-0.41,0.54-0.31,1.17-0.02,1.55 c0.26,0.35,1.04,0.68,1.9,0.39s2.54-1.16,5.35-1.18c2.81,0.02,4.49,0.89,5.35,1.18c0.86,0.29,1.64-0.03,1.9-0.39 C87.79,50.99,87.89,50.36,87.48,49.82z" fill="#454140"/>
  </g>
  <g id="hairGroup">
    <path id="hair_5_" d="M64.57,4.12c-41.01,0-40.68,37.92-40.68,38.52c0,7.76,0.19,16.53,0.75,25.32l6.72-0.02 c-0.06-2.92,1.99-20.97,8.08-22.34c22.36-5.03,35.01-16.89,35.01-16.89c3.29,7.18,13.58,14.19,17.27,16.86 c3.03,2.19,3.96,18.55,3.9,22.38h7.71c0-0.05,0.02-0.1,0.02-0.16c0.56-8.75,0.74-17.46,0.74-25.17 C104.1,42.04,105.58,4.12,64.57,4.12z" fill="#312D2D"/>
    <radialGradient id="hairHighlights_3_" cx="64.3333" cy="64.2846" gradientTransform="matrix(1 0 0 -1.2135 0 141.7279)" gradientUnits="userSpaceOnUse" r="49.788">
      <stop offset="0.7945" stop-color="#454140" stop-opacity="0"/>
      <stop offset="1" stop-color="#454140"/>
    </radialGradient>
    <path id="hairHighlights" d="M64.57,4.12c-41.01,0-40.68,37.92-40.68,38.52 c0,7.76,0.19,16.53,0.75,25.32l6.72-0.02c-0.06-2.92,1.99-20.97,8.08-22.34c22.36-5.03,35.01-16.89,35.01-16.89 c3.29,7.18,13.58,14.19,17.27,16.86c3.03,2.19,3.96,18.55,3.9,22.38h7.71c0-0.05,0.02-0.1,0.02-0.16 c0.56-8.75,0.74-17.46,0.74-25.17C104.1,42.04,105.58,4.12,64.57,4.12z" fill="url(#hairHighlights_3_)"/>
  </g>
  <linearGradient id="hand_2_" gradientTransform="matrix(1 0 0 -1 -117.6717 128)" gradientUnits="userSpaceOnUse" x1="183.1975" x2="142.8956" y1="108.2228" y2="108.2228">
    <stop offset="0.5999" stop-color="#F9DDBD"/>
    <stop offset="1" stop-color="#FFD29C"/>
  </linearGradient>
  <path id="hand" d="M29.3,16.5c2.89-3.22,7.99-6.24,13.53-8.35c8.58-3.27,11.63-3.99,16.51-4.03 c2.23-0.02,3.22,0.59,2.84,1.82c-0.42,1.35-1.53,2.56-4.45,2.7c-4.48,0.37-7.1,1.99-11.26,4.37c-1.96,0.94-3.49,5.71-5.56,7.19 c-1.91,1.37-6.58,5.92-7.93,14.05c-0.4,2.39-10.89,1.11-11.02-3.66C21.92,29.23,24.05,22.35,29.3,16.5z" fill="url(#hand_2_)"/>
  <linearGradient id="shirt_4_" gradientTransform="matrix(1 0 0 -1 0 128)" gradientUnits="userSpaceOnUse" x1="21.1266" x2="21.1266" y1="105.6217" y2="4.5971">
    <stop offset="0" stop-color="#651FFF"/>
    <stop offset="0.7047" stop-color="#5914F2"/>
    <stop offset="1" stop-color="#530EEB"/>
  </linearGradient>
  <path id="shirt_1_" d="M37.82,29.12c0.29-1,0.22-2.22-1.02-2.91l-11.38-5.99 c-0.27-0.13-0.56-0.19-0.85-0.19c-0.87,0-1.72,0.56-2.04,1.34L5.97,64.19c-1.12,3.03-2.18,6.19-1.42,10.35 c0,0,9.09,46.16,10.21,49.46h1.57h1.61h19.38c0,0-4.52-21.36-4.1-21.16l-0.56-4.8c-7.27-20.18-7.22-26.71-6.53-29.13L37.82,29.12z" fill="url(#shirt_4_)"/>
  <linearGradient id="hand_3_" gradientTransform="matrix(-1 0 0 -1 212.8882 128)" gradientUnits="userSpaceOnUse" x1="147.1496" x2="106.8477" y1="108.2228" y2="108.2228">
    <stop offset="0.5999" stop-color="#F9DDBD"/>
    <stop offset="1" stop-color="#FFD29C"/>
  </linearGradient>
  <path id="hand_1_" d="M98.7,16.5c-2.89-3.22-7.99-6.24-13.53-8.35C76.6,4.88,73.54,4.16,68.66,4.12 c-2.23-0.02-3.22,0.59-2.84,1.82c0.42,1.35,1.53,2.56,4.45,2.7c4.48,0.37,7.1,1.99,11.26,4.37c1.96,0.94,3.49,5.71,5.56,7.19 c1.91,1.37,6.58,5.92,7.93,14.05c0.4,2.39,10.89,1.11,11.02-3.66C106.08,29.23,103.95,22.35,98.7,16.5z" fill="url(#hand_3_)"/>
  <linearGradient id="shirt_5_" gradientTransform="matrix(1 0 0 -1 0 128)" gradientUnits="userSpaceOnUse" x1="106.8739" x2="106.8739" y1="105.6217" y2="4.5971">
    <stop offset="0" stop-color="#651FFF"/>
    <stop offset="0.7047" stop-color="#5914F2"/>
    <stop offset="1" stop-color="#530EEB"/>
  </linearGradient>
  <path id="shirt" d="M122.03,64.19l-16.56-42.81c-0.32-0.78-1.17-1.34-2.04-1.34 c-0.29,0-0.57,0.06-0.85,0.19L91.2,26.22c-1.24,0.69-1.31,1.91-1.02,2.91l11.7,39.79c0.69,2.42,0.74,8.95-6.53,29.13l-0.56,4.8 c0.42-0.2-4.1,21.16-4.1,21.16h19.38h1.61h1.57c1.12-3.3,10.21-49.46,10.21-49.46C124.21,70.38,123.15,67.21,122.03,64.19z" fill="url(#shirt_5_)"/>
</svg>

<svg viewBox="0 0 128 128" xmlns="http://www.w3.org/2000/svg">
  <defs>
    <linearGradient id="hand_2_" gradientTransform="matrix(1 0 0 -1 0 0)" gradientUnits="userSpaceOnUse" x1="65.5258" x2="25.2239" y1="-19.7772" y2="-19.7772">
      <stop offset="0.5999" stop-color="#F9DDBD"/>
      <stop offset="1" stop-color="#FFD29C"/>
    </linearGradient>
    <linearGradient id="hand_3_" gradientTransform="matrix(-1 0 0 -1 0 0)" gradientUnits="userSpaceOnUse" x1="-65.7386" x2="-106.0405" y1="-19.7772" y2="-19.7772">
      <stop offset="0.5999" stop-color="#F9DDBD"/>
      <stop offset="1" stop-color="#FFD29C"/>
    </linearGradient>
    <linearGradient id="shirt_3_" gradientTransform="matrix(1 0 0 -1 0 0)" gradientUnits="userSpaceOnUse" x1="64" x2="64" y1="-27.4561" y2="-123.4327">
      <stop offset="0" stop-color="#651FFF"/>
      <stop offset="0.7047" stop-color="#5914F2"/>
      <stop offset="1" stop-color="#530EEB"/>
    </linearGradient>
    <linearGradient id="shirt_4_" gradientTransform="matrix(1 0 0 -1 0 0)" gradientUnits="userSpaceOnUse" x1="21.1266" x2="21.1266" y1="-22.3783" y2="-123.4029">
      <stop offset="0" stop-color="#651FFF"/>
      <stop offset="0.7047" stop-color="#5914F2"/>
      <stop offset="1" stop-color="#530EEB"/>
    </linearGradient>
    <linearGradient id="shirt_5_" gradientTransform="matrix(1 0 0 -1 0 0)" gradientUnits="userSpaceOnUse" x1="106.8739" x2="106.8739" y1="-22.3783" y2="-123.4029">
      <stop offset="0" stop-color="#651FFF"/>
      <stop offset="0.7047" stop-color="#5914F2"/>
      <stop offset="1" stop-color="#530EEB"/>
    </linearGradient>
    <radialGradient id="hairHighlights_2_" cx="64.0002" cy="-50.15439" gradientTransform="matrix(1 0 0 -1.1901 0 0)" gradientUnits="userSpaceOnUse" r="47.5315">
      <stop offset="0.7936" stop-color="#454140" stop-opacity="0"/>
      <stop offset="1" stop-color="#454140"/>
    </radialGradient>
    <radialGradient id="hairHighlights_3_" cx="64.3333" cy="-52.508066" gradientTransform="matrix(1 0 0 -1.2135 0 0)" gradientUnits="userSpaceOnUse" r="49.788">
      <stop offset="0.7945" stop-color="#454140" stop-opacity="0"/>
      <stop offset="1" stop-color="#454140"/>
    </radialGradient>
  </defs>
  <path id="hair_10_" d="M64.57,4.12 C23.56,4.12 23.89,42.04 23.89,42.64 C23.89,67.2 25.77,101.89 35.6,115.54 C39.5,120.95 47.03,121.25 47.03,121.25 L64,121.23 L80.97,121.26 C80.97,121.26 88.51,120.96 92.4,115.55 C102.23,101.9 104.11,67.21 104.11,42.65 C104.1,42.04 105.58,4.12 64.57,4.12 Z" fill="#312D2D"/>
  <path id="hairHighlights_1_" d="M64.57,4.12 C23.56,4.12 23.89,42.04 23.89,42.64 C23.89,67.2 25.77,101.89 35.6,115.54 C39.5,120.95 47.03,121.25 47.03,121.25 L64,121.23 L80.97,121.26 C80.97,121.26 88.51,120.96 92.4,115.55 C102.23,101.9 104.11,67.21 104.11,42.65 C104.1,42.04 105.58,4.12 64.57,4.12 Z" fill="url(#hairHighlights_2_)"/>
  <path id="shirt_2_" d="M108.03,124 C108.03,124 96.46,94.94 96.2,95.56 C94.39,99.89 92.37,102.99 84.45,100.39 C78.06,98.29 72.62,97.89 64.3,97.89 C64.1,97.89 63.9,97.89 63.7,97.89 C55.38,97.89 49.94,98.29 43.55,100.39 C35.63,102.99 33.61,99.89 31.8,95.56 C31.54,94.95 19.97,124 19.97,124 L108.03,124 Z" fill="url(#shirt_3_)"/>
  <path d="M54.92,90.08 L54.92,100.06 C54.92,104.57 58.62,108.23 63.18,108.23 L64.83,108.23 C69.39,108.23 73.09,104.57 73.09,100.06 L73.09,90.08 L54.92,90.08 Z" fill="#EDC391"/>
  <path id="head" d="M64,16.04 L64,16.04 L64,16.04 C46.8,16.04 30.87,28.83 30.87,55.95 C30.87,77.73 44.36,90.62 56.1,94.78 C58.9,95.77 61.6,96.27 64,96.27 C66.38,96.27 69.07,95.78 71.85,94.8 C83.61,90.66 97.13,77.77 97.13,55.96 C97.13,28.83 81.2,16.04 64,16.04 Z" fill="#F9DDBD"/>
  <path id="nose" d="M67.86,68.06 C67.75,68.02 67.65,67.99 67.54,67.98 L60.46,67.98 C60.35,67.99 60.24,68.02 60.14,68.06 C59.5,68.32 59.15,68.98 59.45,69.69 C59.75,70.4 61.16,72.38 64,72.38 C66.84,72.38 68.25,70.39 68.55,69.69 C68.85,68.98 68.5,68.32 67.86,68.06 Z" fill="#DBA689"/>
  <path id="mouth" d="M72.42,76.14 C69.24,78.03 58.79,78.03 55.61,76.14 C53.78,75.05 51.91,76.72 52.67,78.38 C53.42,80.01 59.11,83.8 64.04,83.8 C68.97,83.8 74.59,80.01 75.34,78.38 C76.09,76.72 74.25,75.05 72.42,76.14 Z" fill="#444444"/>
  <path d="M52.49,58.81 A4.93 5.1 0 1 1 42.63,58.81 A4.93 5.1 0 1 1 52.49,58.81 Z" fill="#312D2D"/>
  <path d="M85.37,58.81 A4.93 5.1 0 1 1 75.51,58.81 A4.93 5.1 0 1 1 85.37,58.81 Z" fill="#312D2D"/>
  <path d="M54.99,49.82 C54.06,48.59 51.92,46.81 47.76,46.81 C43.6,46.81 41.45,48.6 40.53,49.82 C40.12,50.36 40.22,50.99 40.51,51.37 C40.77,51.72 41.55,52.05 42.41,51.76 C43.27,51.47 44.95,50.6 47.76,50.58 C50.57,50.6 52.25,51.47 53.11,51.76 C53.97,52.05 54.75,51.73 55.01,51.37 C55.29,50.99 55.39,50.36 54.99,49.82 Z" fill="#454140"/>
  <path d="M87.48,49.82 C86.55,48.59 84.41,46.81 80.25,46.81 C76.09,46.81 73.94,48.6 73.02,49.82 C72.61,50.36 72.71,50.99 73,51.37 C73.26,51.72 74.04,52.05 74.9,51.76 C75.76,51.47 77.44,50.6 80.25,50.58 C83.06,50.6 84.74,51.47 85.6,51.76 C86.46,52.05 87.24,51.73 87.5,51.37 C87.79,50.99 87.89,50.36 87.48,49.82 Z" fill="#454140"/>
  <path id="hair_5_" d="M64.57,4.12 C23.56,4.12 23.89,42.04 23.89,42.64 C23.89,50.4 24.08,59.17 24.64,67.96 L31.36,67.94 C31.3,65.02 33.35,46.97 39.44,45.6 C61.8,40.57 74.45,28.71 74.45,28.71 C77.74,35.89 88.03,42.9 91.72,45.57 C94.75,47.76 95.68,64.12 95.62,67.95 L103.33,67.95 C103.33,67.9 103.35,67.85 103.35,67.79 C103.91,59.04 104.09,50.33 104.09,42.62 C104.1,42.04 105.58,4.12 64.57,4.12 Z" fill="#312D2D"/>
  <path id="hairHighlights" d="M64.57,4.12 C23.56,4.12 23.89,42.04 23.89,42.64 C23.89,50.4 24.08,59.17 24.64,67.96 L31.36,67.94 C31.3,65.02 33.35,46.97 39.44,45.6 C61.8,40.57 74.45,28.71 74.45,28.71 C77.74,35.89 88.03,42.9 91.72,45.57 C94.75,47.76 95.68,64.12 95.62,67.95 L103.33,67.95 C103.33,67.9 103.35,67.85 103.35,67.79 C103.91,59.04 104.09,50.33 104.09,42.62 C104.1,42.04 105.58,4.12 64.57,4.12 Z" fill="url(#hairHighlights_3_)"/>
  <path id="hand" d="M29.3,16.5 C32.19,13.28 37.29,10.26 42.83,8.15 C51.41,4.88 54.46,4.16 59.34,4.12 C61.57,4.1 62.56,4.71 62.18,5.94 C61.76,7.29 60.65,8.5 57.73,8.64 C53.25,9.01 50.63,10.63 46.47,13.01 C44.51,13.95 42.98,18.72 40.91,20.2 C39,21.57 34.33,26.12 32.98,34.25 C32.58,36.64 22.09,35.36 21.96,30.59 C21.92,29.23 24.05,22.35 29.3,16.5 Z" fill="url(#hand_2_)"/>
  <path id="shirt_1_" d="M37.82,29.12 C38.11,28.12 38.04,26.9 36.8,26.21 L25.42,20.22 C25.15,20.09 24.86,20.03 24.57,20.03 C23.7,20.03 22.85,20.59 22.53,21.37 L5.97,64.19 C4.85,67.22 3.79,70.38 4.55,74.54 C4.55,74.54 13.64,120.7 14.76,124 L16.33,124 L17.94,124 L37.32,124 C37.32,124 32.8,102.64 33.22,102.84 L32.66,98.04 C25.39,77.86 25.44,71.33 26.13,68.91 L37.82,29.12 Z" fill="url(#shirt_4_)"/>
  <path id="hand_1_" d="M98.7,16.5 C95.81,13.28 90.71,10.26 85.17,8.15 C76.6,4.88 73.54,4.16 68.66,4.12 C66.43,4.1 65.44,4.71 65.82,5.94 C66.24,7.29 67.35,8.5 70.27,8.64 C74.75,9.01 77.37,10.63 81.53,13.01 C83.49,13.95 85.02,18.72 87.09,20.2 C89,21.57 93.67,26.12 95.02,34.25 C95.42,36.64 105.91,35.36 106.04,30.59 C106.08,29.23 103.95,22.35 98.7,16.5 Z" fill="url(#hand_3_)"/>
  <path id="shirt" d="M122.03,64.19 L105.47,21.38 C105.15,20.6 104.3,20.04 103.43,20.04 C103.14,20.04 102.86,20.1 102.58,20.23 L91.2,26.22 C89.96,26.91 89.89,28.13 90.18,29.13 L101.88,68.92 C102.57,71.34 102.62,77.87 95.35,98.05 L94.79,102.85 C95.21,102.65 90.69,124.01 90.69,124.01 L110.07,124.01 L111.68,124.01 L113.25,124.01 C114.37,120.71 123.46,74.55 123.46,74.55 C124.21,70.38 123.15,67.21 122.03,64.19 Z" fill="url(#shirt_5_)"/>
</svg>
